X: 112
T: Hong xiuying
%%abc-version 2.0
%%abcx-abcm2ps-target-version 5.9.1 (29 Sep 2008)
%%abc-creator hum2abc beta
%%abcx-conversion-date 2013/10/02 07:52:29
%%abc-edited-by Helmut Schaffrath
%%humdrum-veritas 1875822885
%%humdrum-veritas-data 1399428324
%%continueall 1
%%barnumbers 0
L: 1/8
M: 2/4
K: G
d eA2 [I:setbarnb 1]| 
d eA2 | 
d d e d | 
d GA2 | 
d d e d | 
c e d d | 
E GA2 | 
c> A G B | 
A/ G/ ED2 |]  



